build/system/ArrowUpSolid.svg

<svg xmlns="http://www.w3.org/2000/svg" fill="none" viewBox="0 0 24 24" focusable="false"><path d="M0 0H24V24H0z"/><path fill="#74767B" fill-rule="evenodd" d="M12 21C16.9706 21 21 16.9706 21 12C21 7.02944 16.9706 3 12 3C7.02944 3 3 7.02944 3 12C3 16.9706 7.02944 21 12 21ZM7.44183 11.5C7.44183 11.68 7.51183 11.85 7.65183 11.98C7.92183 12.22 8.33183 12.2 8.57183 11.94L11.4055 9.05238L11.4055 16C11.4055 16.359 11.6965 16.65 12.0555 16.65C12.4145 16.65 12.7055 16.359 12.7055 16L12.7055 9.05944L15.5218 11.96C15.7618 12.23 16.1718 12.24 16.4418 12C16.7018 11.76 16.7218 11.35 16.4818 11.08L12.5755 7.02C12.2955 6.71 11.8155 6.71 11.5355 7.02L7.61182 11.06C7.49183 11.19 7.44183 11.34 7.44183 11.5Z"/></svg>

<svg xmlns="http://www.w3.org/2000/svg" fill="none" viewBox="0 0 24 24" focusable="false"><path fill="#74767B" fill-rule="evenodd" d="M12 21a9 9 0 0 0 9-9c0-4.98-4.03-9-9-9-4.98 0-9 4.02-9 9 0 4.97 4.02 9 9 9m-4.56-9.5c0 .18.07.35.21.48.27.24.68.22.92-.04l2.83-2.89V16c0 .35.29.65.65.65s.65-.3.65-.65V9.05l2.82 2.91c.24.27.65.28.92.04.26-.24.28-.65.04-.92l-3.91-4.06a.7.7 0 0 0-1.04 0l-3.92 4.04c-.12.13-.17.28-.17.44"/></svg>
